svg/u2714.svg

<svg viewBox="0 0 128 128" xmlns="http://www.w3.org/2000/svg">
  <path d="M36.02,123.97c-0.7-0.02-1.41-0.08-2.1-0.2c-4.33-0.77-7.89-3.84-9.3-8l-20-60 c-2.1-6.3,1.3-13.1,7.6-15.2c6.3-2.1,13.1,1.3,15.2,7.6l13,39l62.2-78.6c4.11-5.22,11.68-6.11,16.9-2s6.11,11.68,2,16.9l-76,96 C43.18,122.31,39.7,123.96,36.02,123.97z" fill="#546D7A"/>
  <path d="M75.17,58.91c1.49-1.24,29.97-35.22,29.97-35.22s2.38-2.53,0.36-4.75 c-1.9-2.03-4.38-0.7-5.57,0.62S73.04,51.18,71.98,52.68c-1.04,1.69-1.07,3.81-0.09,5.53C72.83,59.73,74.14,59.81,75.17,58.91z" opacity="0.35" fill="#FFFFFF"/>
  <circle cx="108.45" cy="12.83" r="3.3" opacity="0.35" fill="#FFFFFF"/>
  <path d="M12.73,65.49c0.67-0.01,0.53-3.76,2.28-7.35c1.23-2.54,2.82-3.82,2.81-5.24 s-1.92-8.34-3.35-7.88c-1.99,0.63-4.53,3.19-5.1,7.18C8.48,58.48,11.5,65.51,12.73,65.49z" opacity="0.35" fill="#FFFFFF"/>
</svg>

<svg viewBox="0 0 128 128" xmlns="http://www.w3.org/2000/svg">
  <defs/>
  <path d="M36.02,123.97 C35.32,123.95 34.61,123.89 33.92,123.77 C29.59,123 26.03,119.93 24.62,115.77 L4.62,55.77 C2.52,49.47 5.92,42.67 12.22,40.57 C18.52,38.47 25.32,41.87 27.42,48.17 L40.42,87.17 L102.62,8.57 C106.73,3.35 114.3,2.46 119.52,6.57 C124.74,10.68 125.63,18.25 121.52,23.47 L45.52,119.47 C43.18,122.31 39.7,123.96 36.02,123.97 Z" fill="#546D7A"/>
  <path d="M75.17,58.91 C76.66,57.67 105.14,23.69 105.14,23.69 C105.14,23.69 107.52,21.16 105.5,18.94 C103.6,16.91 101.12,18.24 99.93,19.56 C98.74,20.88 73.04,51.18 71.98,52.68 C70.94,54.37 70.91,56.49 71.89,58.21 C72.83,59.73 74.14,59.81 75.17,58.91 Z" fill="#FFFFFF" opacity="0.35"/>
  <path d="M111.75,12.83 A3.3 3.3 0 1 1 105.15,12.83 A3.3 3.3 0 1 1 111.75,12.83 Z" fill="#FFFFFF" opacity="0.35"/>
  <path d="M12.73,65.49 C13.4,65.48 13.26,61.73 15.01,58.14 C16.24,55.6 17.83,54.32 17.82,52.9 C17.81,51.48 15.9,44.56 14.47,45.02 C12.48,45.65 9.94,48.21 9.37,52.2 C8.48,58.48 11.5,65.51 12.73,65.49 Z" fill="#FFFFFF" opacity="0.35"/>
</svg>
